cartflows/admin-core/assets/images/plugins/suretriggers/trusted-brands/Elementor_Logo.svg

<svg width="120" height="24" viewBox="0 0 120 24" fill="none" xmlns="http://www.w3.org/2000/svg">
<mask id="mask0_4393_128253" style="mask-type:luminance" maskUnits="userSpaceOnUse" x="0" y="2" width="120" height="20">
<path d="M119.563 2.40625H0.338196V21.5914H119.563V2.40625Z" fill="white"/>
</mask>
<g mask="url(#mask0_4393_128253)">
<path d="M75.7977 11.0964C75.7977 11.0964 74.768 11.3428 73.8969 11.5508L72.5727 11.8531C72.5692 11.8531 72.564 11.8531 72.5606 11.8531C72.5606 11.4948 72.5866 11.1173 72.672 10.7695C72.7818 10.3239 73.0223 9.80308 73.4404 9.57414C73.8951 9.32596 74.4492 9.29625 74.9301 9.4885C75.4284 9.68599 75.6566 10.1683 75.7543 10.6682C75.7821 10.808 75.7995 10.9478 75.8134 11.0894L75.7977 11.0964ZM79.251 11.8531C79.251 8.38746 77.0749 6.89844 74.2942 6.89844C71.151 6.89844 69.1821 9.08128 69.1821 11.8706C69.1821 14.9028 70.8582 16.8776 74.4666 16.8776C76.4181 16.8776 77.5227 16.5316 78.8364 15.8728L78.3363 13.6025C77.3345 14.0534 76.4024 14.3296 75.1583 14.3296C73.7941 14.3296 73.017 13.8105 72.7225 12.8406H79.164C79.2161 12.5801 79.251 12.2848 79.251 11.8531Z" fill="#4B5563"/>
<path d="M46.891 11.0964C46.891 11.0964 45.8612 11.3428 44.9901 11.5508L43.666 11.8531C43.6624 11.8531 43.6572 11.8531 43.6537 11.8531C43.6537 11.4948 43.6799 11.1173 43.7652 10.7695C43.875 10.3239 44.1155 9.80308 44.5336 9.57414C44.9884 9.32596 45.5424 9.29625 46.0233 9.4885C46.5216 9.68599 46.7499 10.1683 46.8474 10.6682C46.8753 10.808 46.8927 10.9478 46.9066 11.0894L46.891 11.0964ZM50.3442 11.8531C50.3442 8.38746 48.168 6.89844 45.3874 6.89844C42.2443 6.89844 40.2755 9.08128 40.2755 11.8706C40.2755 14.9028 41.9516 16.8776 45.5598 16.8776C47.5113 16.8776 48.6158 16.5316 49.9295 15.8728L49.4296 13.6025C48.4277 14.0534 47.4955 14.3296 46.2515 14.3296C44.8873 14.3296 44.1102 13.8105 43.8158 12.8406H50.2572C50.3095 12.5801 50.3442 12.2848 50.3442 11.8531Z" fill="#4B5563"/>
<path d="M38.9234 4.35156H35.7332V16.5294H38.9234V4.35156Z" fill="#4B5563"/>
<path d="M79.9236 7.20973H83.274L83.9796 9.36287C84.4205 8.30029 85.4136 6.93359 87.1751 6.93359C89.5934 6.93359 90.9053 8.16397 90.9053 11.3342V16.5318H87.5549C87.5549 15.4483 87.5567 14.3665 87.5583 13.2829C87.5583 12.7866 87.5496 12.2902 87.5567 11.7939C87.5618 11.336 87.5949 10.8624 87.351 10.4517C87.1855 10.1738 86.9155 9.96931 86.6246 9.82951C86.0338 9.54638 85.3926 9.55337 84.8124 9.85747C84.6697 9.93262 83.9796 10.3066 83.9796 10.4796V16.5318H80.6292V9.72464L79.9236 7.20973Z" fill="#4B5563"/>
<path d="M93.4388 9.65305H91.902V7.20979H93.4388V5.68233L96.7892 4.89062V7.20979H100.157V9.65305H96.7892V12.3899C96.7892 13.4647 97.3068 13.9663 98.0839 13.9663C98.8783 13.9663 99.3278 13.8615 100 13.6378L100.398 16.1666C99.4828 16.5651 98.3433 16.7556 97.1847 16.7556C94.749 16.7556 93.437 15.5951 93.437 13.3424V9.65305H93.4388Z" fill="#4B5563"/>
<path d="M106.426 14.1019C107.653 14.1019 108.377 13.2175 108.377 11.7984C108.377 10.3793 107.687 9.56314 106.478 9.56314C105.252 9.56314 104.544 10.3776 104.544 11.8491C104.544 13.2368 105.234 14.1019 106.426 14.1019ZM106.461 6.84375C109.604 6.84375 111.9 8.81863 111.9 11.8841C111.9 14.967 109.604 16.8212 106.426 16.8212C103.265 16.8212 101.02 14.9163 101.02 11.8841C101.02 8.81863 103.248 6.84375 106.461 6.84375Z" fill="#4B5563"/>
<path d="M66.1803 7.18083C65.588 6.93616 64.9171 6.84528 64.2759 6.9379C63.9501 6.98509 63.6313 7.07947 63.3351 7.22628C62.5231 7.62823 61.8908 8.54577 61.551 9.36369C61.3279 8.42169 60.678 7.57581 59.7285 7.18258C59.1361 6.9379 58.4653 6.84703 57.8241 6.93966C57.4984 6.98685 57.1794 7.08121 56.8833 7.22802C56.0731 7.62823 55.4424 8.54227 55.1009 9.35844V9.29902L54.4179 7.2123H51.0674L51.7732 9.7272V16.5326H55.1009V10.449C55.1131 10.4035 55.2612 10.3197 55.2873 10.3004C55.6776 10.0226 56.1358 9.73594 56.6236 9.70099C57.1221 9.66429 57.6133 9.9177 57.9095 10.3144C57.9409 10.3581 57.9705 10.4018 57.9983 10.4472C58.2424 10.858 58.2093 11.3316 58.204 11.7895C58.1988 12.2858 58.2057 12.7821 58.2057 13.2785C58.204 14.362 58.2022 15.4439 58.2022 16.5274H61.5528V11.3316C61.5528 11.3054 61.5528 11.2791 61.5528 11.2547V10.4525C61.5597 10.4088 61.7131 10.3214 61.7409 10.3022C62.1312 10.0243 62.5893 9.73768 63.0773 9.70273C63.5755 9.66603 64.0669 9.91945 64.3631 10.3162C64.3944 10.3599 64.4241 10.4035 64.452 10.449C64.6958 10.8597 64.6627 11.3333 64.6575 11.7912C64.6523 12.2875 64.6593 12.7839 64.6593 13.2802C64.6575 14.3638 64.6558 15.4456 64.6558 16.5292H68.0063V11.3316C68.0063 9.8076 67.7884 7.84495 66.1803 7.18083Z" fill="#4B5563"/>
<path d="M119.824 6.93359C118.063 6.93359 117.071 8.30203 116.629 9.36287L115.923 7.20973H112.573L113.278 9.72464V16.5301H116.629V10.2419C117.106 10.1581 119.697 10.6369 120.188 10.8169V6.94583C120.07 6.93884 119.95 6.93359 119.824 6.93359Z" fill="#4B5563"/>
<path d="M30.9279 11.0964C30.9279 11.0964 29.8982 11.3428 29.0271 11.5508L27.7029 11.8531C27.6994 11.8531 27.6942 11.8531 27.6907 11.8531C27.6907 11.4948 27.7168 11.1173 27.8022 10.7695C27.912 10.3239 28.1525 9.80308 28.5706 9.57414C29.0253 9.32596 29.5794 9.29625 30.0603 9.4885C30.5586 9.68599 30.7868 10.1683 30.8845 10.6682C30.9123 10.808 30.9297 10.9478 30.9436 11.0894L30.9279 11.0964ZM34.3812 11.8531C34.3812 8.38746 32.2051 6.89844 29.4244 6.89844C26.2812 6.89844 24.3123 9.08128 24.3123 11.8706C24.3123 14.9028 25.9884 16.8776 29.5968 16.8776C31.5483 16.8776 32.6528 16.5316 33.9665 15.8728L33.4665 13.6025C32.4647 14.0534 31.5325 14.3296 30.2885 14.3296C28.9243 14.3296 28.1472 13.8105 27.8527 12.8406H34.294C34.3463 12.5801 34.3812 12.2848 34.3812 11.8531Z" fill="#4B5563"/>
<path d="M9.90874 2.40625C4.62255 2.40625 0.338196 6.70379 0.338196 12.0062C0.338196 17.307 4.62255 21.6063 9.90874 21.6063C15.1949 21.6063 19.4792 17.3087 19.4792 12.0062C19.4776 6.70379 15.1932 2.40625 9.90874 2.40625ZM7.51654 16.0049H5.92231V8.00581H7.51654V16.0049ZM13.8951 16.0049H9.11076V14.4058H13.8951V16.0049ZM13.8951 12.8049H9.11076V11.2058H13.8951V12.8049ZM13.8951 9.60495H9.11076V8.00581H13.8951V9.60495Z" fill="#4B5563"/>
</g>
</svg>

<svg width="120" height="24" fill="none" xmlns="http://www.w3.org/2000/svg"><mask id="a" style="mask-type:luminance" maskUnits="userSpaceOnUse" x="0" y="2" width="120" height="20"><path d="M119.563 2.406H.338v19.185h119.225V2.406Z" fill="#fff"/></mask><g mask="url(#a)" fill="#4B5563"><path d="m75.798 11.096-1.901.455-1.324.302h-.012c0-.358.026-.736.111-1.083.11-.446.35-.967.768-1.196a1.765 1.765 0 0 1 1.49-.085c.498.197.727.68.824 1.18.028.139.045.279.06.42l-.016.007Zm3.453.757c0-3.466-2.176-4.955-4.957-4.955-3.143 0-5.112 2.183-5.112 4.973 0 3.032 1.676 5.007 5.285 5.007 1.951 0 3.056-.346 4.37-1.005l-.5-2.27c-1.002.45-1.935.727-3.179.727-1.364 0-2.141-.52-2.436-1.49h6.442a4.83 4.83 0 0 0 .087-.987ZM46.891 11.096l-1.9.455-1.325.302h-.012c0-.358.026-.736.111-1.083.11-.446.35-.967.769-1.196a1.765 1.765 0 0 1 1.49-.085c.498.197.726.68.823 1.18.028.139.046.279.06.42l-.016.007Zm3.453.757c0-3.466-2.176-4.955-4.957-4.955-3.143 0-5.111 2.183-5.111 4.973 0 3.032 1.676 5.007 5.284 5.007 1.951 0 3.056-.346 4.37-1.005l-.5-2.27c-1.002.45-1.934.727-3.178.727-1.365 0-2.142-.52-2.436-1.49h6.441c.053-.26.087-.555.087-.987ZM38.923 4.352h-3.19v12.177h3.19V4.352ZM79.924 7.21h3.35l.706 2.153c.44-1.063 1.434-2.43 3.195-2.43 2.418 0 3.73 1.231 3.73 4.401v5.198h-3.35c0-1.084.002-2.165.003-3.25 0-.495-.008-.992-.001-1.488.005-.458.038-.932-.206-1.342-.165-.278-.436-.483-.726-.622a1.974 1.974 0 0 0-1.813.027c-.142.076-.832.45-.832.623v6.052h-3.35V9.725l-.706-2.515ZM93.439 9.653h-1.537V7.21h1.537V5.682l3.35-.791V7.21h3.368v2.443h-3.368v2.737c0 1.075.518 1.576 1.295 1.576.794 0 1.244-.104 1.916-.328l.398 2.529c-.915.398-2.055.589-3.213.589-2.436 0-3.748-1.16-3.748-3.414V9.653h.002ZM106.426 14.102c1.227 0 1.951-.885 1.951-2.304 0-1.419-.69-2.235-1.899-2.235-1.226 0-1.934.815-1.934 2.286 0 1.388.69 2.253 1.882 2.253Zm.035-7.258c3.143 0 5.439 1.975 5.439 5.04 0 3.083-2.296 4.937-5.474 4.937-3.161 0-5.406-1.905-5.406-4.937 0-3.065 2.228-5.04 5.441-5.04ZM66.18 7.18a3.67 3.67 0 0 0-1.904-.242 3.125 3.125 0 0 0-.94.288c-.813.402-1.445 1.32-1.785 2.138-.223-.942-.873-1.788-1.823-2.181a3.67 3.67 0 0 0-1.904-.243 3.125 3.125 0 0 0-.94.288c-.81.4-1.442 1.314-1.783 2.13V9.3l-.683-2.087h-3.35l.705 2.515v6.806h3.328v-6.084c.012-.046.16-.13.186-.149.39-.277.849-.564 1.337-.599.498-.037.99.217 1.285.613.032.044.062.088.09.133.243.411.21.885.205 1.343-.005.496.002.992.002 1.489-.002 1.083-.004 2.165-.004 3.248h3.35v-6.075c.008-.043.161-.13.189-.15.39-.278.848-.564 1.336-.6.498-.036.99.217 1.286.614.031.044.061.087.089.133.244.41.21.884.206 1.342-.006.496.001.993.001 1.49-.002 1.083-.003 2.165-.003 3.248h3.35v-5.197c0-1.524-.218-3.487-1.826-4.151ZM119.824 6.934c-1.761 0-2.753 1.368-3.195 2.429l-.706-2.153h-3.35l.705 2.515v6.805h3.351v-6.288c.477-.084 3.068.395 3.559.575V6.946a6.094 6.094 0 0 0-.364-.012ZM30.928 11.096l-1.9.455-1.325.302h-.012c0-.358.026-.736.111-1.083.11-.446.35-.967.769-1.196a1.765 1.765 0 0 1 1.49-.085c.498.197.726.68.823 1.18.028.139.046.279.06.42l-.016.007Zm3.453.757c0-3.466-2.176-4.955-4.957-4.955-3.143 0-5.112 2.183-5.112 4.973 0 3.032 1.676 5.007 5.285 5.007 1.951 0 3.056-.346 4.37-1.005l-.5-2.27c-1.002.45-1.934.727-3.178.727-1.365 0-2.142-.52-2.436-1.49h6.441c.052-.26.087-.555.087-.987ZM9.909 2.406c-5.286 0-9.57 4.298-9.57 9.6 0 5.301 4.284 9.6 9.57 9.6 5.286 0 9.57-4.297 9.57-9.6-.001-5.302-4.286-9.6-9.57-9.6ZM7.517 16.005H5.922v-8h1.595v8Zm6.378 0H9.111v-1.6h4.784v1.6Zm0-3.2H9.111v-1.6h4.784v1.6Zm0-3.2H9.111v-1.6h4.784v1.6Z"/></g></svg>
